public/assets/index/how_it_works_numbers.svg

<?xml version="1.0" encoding="UTF-8" standalone="no"?>
<svg width="44px" height="421px" viewBox="0 0 44 421" version="1.1" xmlns="http://www.w3.org/2000/svg" xmlns:xlink="http://www.w3.org/1999/xlink" xmlns:sketch="http://www.bohemiancoding.com/sketch/ns">
    <!-- Generator: Sketch 3.5.1 (25234) - http://www.bohemiancoding.com/sketch -->
    <title>Numbers</title>
    <desc>Created with Sketch.</desc>
    <defs></defs>
    <g id="Promotional-page" stroke="none" stroke-width="1" fill="none" fill-rule="evenodd" sketch:type="MSPage">
        <g id="Promotional---option-1" sketch:type="MSArtboardGroup" transform="translate(-661.000000, -2196.000000)">
            <g id="How-it-works" sketch:type="MSLayerGroup" transform="translate(203.000000, 1992.000000)">
                <g id="Number-option" transform="translate(0.000000, 198.000000)" sketch:type="MSShapeGroup">
                    <g id="Numbers" transform="translate(460.000000, 8.000000)">
                        <g id="round-3" transform="translate(0.000000, 377.000000)">
                            <circle id="Oval-4-Copy" stroke="#4AA0D5" stroke-width="3" cx="20" cy="20" r="20"></circle>
                            <path d="M17.1929947,15.5860358 C17.5529947,15.3460358 18.1049947,15.1300358 18.7289947,15.1300358 C19.9049947,15.1300358 20.3129947,16.1620358 20.3129947,16.6420358 C20.3129947,16.7140358 20.4329947,18.3460358 18.7769947,18.3460358 L18.1529947,18.3460358 C17.4569947,18.3460358 16.8089947,19.0420358 16.8089947,19.7860358 C16.8089947,20.5780358 17.4329947,21.2260358 18.1529947,21.2260358 L18.9209947,21.2260358 C21.0329947,21.2260358 20.9369947,23.0260358 20.9129947,23.3140358 C20.8169947,24.1300358 19.8569947,25.0660358 18.6569947,24.9940358 C18.0089947,24.9700358 17.2169947,24.6580358 16.6649947,24.2020358 C15.8489947,23.5060358 14.9129947,23.6740358 14.3849947,24.2740358 C13.7849947,24.9460358 13.9529947,25.9300358 14.4329947,26.4100358 C15.4649947,27.4900358 16.8089947,28.1380358 18.3929947,28.2340358 C21.5369947,28.4500358 24.3209947,26.4580358 24.5849947,23.7700358 C24.7289947,22.0900358 23.6249947,20.1220358 21.8969947,19.4980358 C23.0489947,18.8500358 23.9129947,17.7220358 23.9129947,16.4260358 C23.9849947,14.1700358 21.9929947,12.1540358 19.2569947,12.0100358 C17.5769947,11.9140358 16.0649947,12.5140358 15.0329947,13.4980358 C14.4809947,14.0260358 14.3849947,14.9380358 14.9369947,15.5380358 C15.5369947,16.1620358 16.1849947,16.2340358 17.1929947,15.5860358 L17.1929947,15.5860358 Z" id="3" fill="#4AA0D5"></path>
                        </g>
                        <g id="round-2" transform="translate(0.000000, 241.000000)">
                            <circle id="Oval-4-Copy" stroke="#4AA0D5" stroke-width="3" cx="20" cy="20" r="20"></circle>
                            <path d="M17.072,16.608 C17.432,15.744 18.152,15.216 19.088,15.216 C20.336,15.216 21.056,15.936 21.056,16.776 C21.056,17.376 20.648,18 20.216,18.552 L14.504,25.632 C14.216,25.968 14,26.448 14,26.904 C14,27.6 14.432,28.032 15.08,28.032 L23.096,28.032 C23.888,28.032 24.56,27.264 24.56,26.448 C24.56,25.584 23.888,24.864 23.096,24.864 L19.208,24.864 L22.76,20.76 C23.672,19.656 24.416,18.288 24.416,16.776 C24.416,13.944 22.064,12 19.28,12 C16.736,12 14.888,13.368 14.096,15.624 C13.808,16.536 14.264,17.376 15.032,17.592 C16.04,17.88 16.784,17.28 17.072,16.608 L17.072,16.608 Z" id="2" fill="#4AA0D5"></path>
                        </g>
                        <g id="round-1" transform="translate(0.000000, 105.000000)">
                            <circle id="Oval-4-Copy" stroke="#4AA0D5" stroke-width="3" cx="20" cy="20" r="20"></circle>
                            <path d="M16.6801494,14.112 C16.0561494,14.4 15.8161494,15.216 16.1521494,15.888 C16.4641494,16.56 17.2801494,16.824 17.8801494,16.56 L18.9601494,16.104 L18.9601494,26.592 C18.9601494,27.408 19.7761494,28.152 20.6401494,28.152 C21.5521494,28.152 22.3201494,27.432 22.3201494,26.592 L22.3201494,12.744 C22.3201494,12.36 22.0081494,12 21.5761494,12 L21.5281494,12 C21.3121494,12 21.0241494,12.048 20.7121494,12.192 L16.6801494,14.112 Z" id="1" fill="#4AA0D5"></path>
                        </g>
                        <path d="M20,20.498512 L20,104.501785" id="Line" stroke="#4AA0D5" stroke-width="3" stroke-linecap="square"></path>
                        <path d="M20,145.5 L20,240.501312" id="Line" stroke="#4AA0D5" stroke-width="3" stroke-linecap="square"></path>
                        <path d="M20,281.5 L20,376.501312" id="Line" stroke="#4AA0D5" stroke-width="3" stroke-linecap="square"></path>
                        <circle id="Oval-4" stroke="#4AA0D5" stroke-width="3" cx="20" cy="10" r="10"></circle>
                        <circle id="Oval-4" fill="#4AA0D5" cx="20" cy="10" r="5"></circle>
                    </g>
                </g>
            </g>
        </g>
    </g>
</svg>

<svg width="44" height="421" viewBox="0 0 44 421" xmlns="http://www.w3.org/2000/svg"><title>Numbers</title><g transform="translate(2 2)" fill="none" fill-rule="evenodd"><g transform="translate(0 377)"><circle stroke="#4AA0D5" stroke-width="3" cx="20" cy="20" r="20"/><path d="M17.193 15.586a2.84 2.84 0 0 1 1.536-.456c1.175 0 1.583 1.032 1.583 1.512 0 .072.12 1.704-1.536 1.704h-.624c-.696 0-1.344.696-1.344 1.44 0 .792.623 1.44 1.343 1.44h.768c2.113 0 2.017 1.8 1.993 2.088-.096.816-1.056 1.752-2.256 1.68-.648-.024-1.44-.336-1.992-.792-.816-.696-1.752-.528-2.28.072-.6.672-.432 1.656.048 2.136 1.032 1.08 2.376 1.728 3.96 1.824 3.144.216 5.928-1.776 6.192-4.464.144-1.68-.96-3.648-2.688-4.272 1.152-.648 2.016-1.776 2.016-3.072.072-2.256-1.92-4.272-4.656-4.416-1.68-.096-3.192.504-4.224 1.488-.552.528-.648 1.44-.096 2.04.6.624 1.248.696 2.256.048z" fill="#4AA0D5"/></g><g transform="translate(0 241)"><circle stroke="#4AA0D5" stroke-width="3" cx="20" cy="20" r="20"/><path d="M17.072 16.608c.36-.864 1.08-1.392 2.016-1.392 1.248 0 1.968.72 1.968 1.56 0 .6-.408 1.224-.84 1.776l-5.712 7.08c-.288.336-.504.816-.504 1.272 0 .696.432 1.128 1.08 1.128h8.016c.792 0 1.464-.768 1.464-1.584 0-.864-.672-1.584-1.464-1.584h-3.888l3.552-4.104c.912-1.104 1.656-2.472 1.656-3.984 0-2.832-2.352-4.776-5.136-4.776-2.544 0-4.392 1.368-5.184 3.624-.288.912.168 1.752.936 1.968 1.008.288 1.752-.312 2.04-.984z" fill="#4AA0D5"/></g><g transform="translate(0 105)"><circle stroke="#4AA0D5" stroke-width="3" cx="20" cy="20" r="20"/><path d="M16.68 14.112c-.624.288-.864 1.104-.528 1.776.312.672 1.128.936 1.728.672l1.08-.456v10.488c0 .816.816 1.56 1.68 1.56.912 0 1.68-.72 1.68-1.56V12.744a.747.747 0 0 0-.744-.744h-.048a1.98 1.98 0 0 0-.816.192l-4.032 1.92z" fill="#4AA0D5"/></g><path d="M20 20.5V104.5M20 145.5v95M20 281.5v95" stroke="#4AA0D5" stroke-width="3" stroke-linecap="square"/><circle stroke="#4AA0D5" stroke-width="3" cx="20" cy="10" r="10"/><circle fill="#4AA0D5" cx="20" cy="10" r="5"/></g></svg>
